packages/symbols/svgs/duotone/tags-duotone.svg

<svg width="24" height="24" viewBox="0 0 24 24" fill="none" xmlns="http://www.w3.org/2000/svg">
<g clip-path="url(#clip0_1068_7791)">
<path fill-rule="evenodd" clip-rule="evenodd" d="M0 5C0 4.44772 0.447715 4 1 4H9C9.26522 4 9.51957 4.10536 9.70711 4.29289L19.121 13.7067C19.121 13.7068 19.1211 13.7068 19.1211 13.7069C19.3997 13.9855 19.6208 14.3162 19.7716 14.6802C19.9224 15.0442 20.0001 15.4344 20.0001 15.8285C20.0001 16.2226 19.9224 16.6128 19.7716 16.9768C19.6208 17.3408 19.3997 17.6715 19.1211 17.9501M19.121 17.9502L13.9502 23.121C13.9502 23.121 13.9502 23.1211 13.9501 23.1211C13.6715 23.3997 13.3408 23.6208 12.9768 23.7716C12.6128 23.9224 12.2226 24.0001 11.8285 24.0001C11.4344 24.0001 11.0442 23.9224 10.6802 23.7716C10.3162 23.6208 9.98546 23.3997 9.70689 23.1211C9.70685 23.1211 9.7068 23.121 9.70675 23.121L0.292893 13.7071C0.105357 13.5196 0 13.2652 0 13V5M2 6V12.5858L11.1211 21.7069L11.1212 21.707C11.2141 21.7999 11.3244 21.8736 11.4457 21.9239C11.5671 21.9742 11.6971 22.0001 11.8285 22.0001C11.9599 22.0001 12.0899 21.9742 12.2113 21.9239C12.3326 21.8736 12.4429 21.7999 12.5358 21.707L12.5359 21.7069L17.7069 16.5359L17.707 16.5358C17.7999 16.4429 17.8736 16.3326 17.9239 16.2113C17.9742 16.0899 18.0001 15.9599 18.0001 15.8285C18.0001 15.6971 17.9742 15.5671 17.9239 15.4457C17.8736 15.3244 17.7999 15.2141 17.707 15.1212L17.7069 15.1211L8.58579 6H2Z" fill="black"/>
<path opacity="0.5" fill-rule="evenodd" clip-rule="evenodd" d="M2 1C2 0.447715 2.44772 0 3 0H11C11.2652 0 11.5196 0.105357 11.7071 0.292893L21.7071 10.2929C22.0976 10.6834 22.0976 11.3166 21.7071 11.7071C21.3166 12.0976 20.6834 12.0976 20.2929 11.7071L10.5858 2H3C2.44772 2 2 1.55228 2 1Z" fill="black"/>
<path opacity="0.5" d="M6 12C7.10457 12 8 11.1046 8 10C8 8.89543 7.10457 8 6 8C4.89543 8 4 8.89543 4 10C4 11.1046 4.89543 12 6 12Z" fill="black"/>
</g>
<defs>
<clipPath id="clip0_1068_7791">
<rect width="24" height="24" fill="white"/>
</clipPath>
</defs>
</svg>

<svg width="24" height="24" viewBox="0 0 24 24" xmlns="http://www.w3.org/2000/svg"><g clip-path="url(#a)"><path fill-rule="evenodd" clip-rule="evenodd" d="M0 5a1 1 0 0 1 1-1h8a1 1 0 0 1 .707.293l9.414 9.414a3 3 0 0 1 0 4.243m0 0-5.17 5.171a3 3 0 0 1-4.244 0L.293 13.707A1 1 0 0 1 0 13V5m2 1v6.586l9.121 9.12v.001a1.001 1.001 0 0 0 1.415 0l5.17-5.171h.001a1.001 1.001 0 0 0 0-1.415L8.586 6H2Z"/><path opacity=".5" fill-rule="evenodd" clip-rule="evenodd" d="M2 1a1 1 0 0 1 1-1h8a1 1 0 0 1 .707.293l10 10a1 1 0 0 1-1.414 1.414L10.586 2H3a1 1 0 0 1-1-1Z"/><path opacity=".5" d="M6 12a2 2 0 1 0 0-4 2 2 0 0 0 0 4Z"/></g><defs><clipPath id="a"><path fill="#fff" d="M0 0h24v24H0z"/></clipPath></defs></svg>
